!!!OTL: 2014. St. Ottilia.
!!!ARE: Europa, Mitteleuropa, Deutschland, Mittel - Franken, Ziegelanger
!!!SCT: E2114
!!!TXL: @@DE
!!!YEM: Copyright 1995, estate of Helmut Schaffrath.
**kern	**text
*ICvox	*
*M3/4	*
*k[f#]	*
*G:	*
!LO:TX:a:t=Mel. aus Mitteliranken (Ʒiegelanger).	!
{8g	Es
=1	=1
8g	war
8b	ein
[4dd	Kö-
8dd]	-nig
8b	wol
=2	=2
8cc	an
8dd	dem
4ee	Rhein,
8r}	.
{8dd	der
=3	=3
8.dd	hat-
16cc	-te
(4cc	auch
8b)	.
8a	ein
=4	=4
8b	Töch-
8cc	-ter-
4dd	-lein,
8r}	.
{8g	der
=5	=5
8g	Na-
8b	-me
4dd	war
4b	Ot-
=6	=6
4a	-ti-
4g	-lia.
8r}	.
{8g	der
=7	=7
8g	Na-
8b	-me
4dd	war
4b	Ot-
=8	=8
4a	-ti-
4g	-lia.
8r}	.
==	==
!!!AGN: geistlich, Heiligen - Lied, Legende
!!!ONB: ESAC (Essen Associative Code) Database: ERK3
!!!AMT: simple triple
!!!AIN: vox
!!!EED: Helmut Schaffrath
!!!EEV: 1.0
!!!GTL: 4. Katholische Lieder: c) Heiligenlieder (Rufe und Legenden.)
!!!URL-scan: https://rosdok.uni-rostock.de/mcrviewer/recordIdentifier/rosdok_ppn745177999/iview2/phys_0810.iview2?x=188.96815741117916&y=242.18765162630007&scale=0.7014306698522887&rotation=0&layout=singlePageLayout
!!!ENC: Anna Maria Matuszewska
!!!EEV: 2025/14/01
*-	*-
